X: 151
T: Huiqin Future
L: 1/8
M: 2/4
K: C
G EG2 [I:setbarnb 1]| 
G c c A | 
c C C c | 
G4 | 
G A,C2 | 
E A G D | 
E> A, G, D | 
C4 |]

@@@ Tune index: 8819
